icons/1_Primary/Greenhost.svg

<svg width="1024" height="1024" viewBox="0 0 1024 1024" fill="none" xmlns="http://www.w3.org/2000/svg">
<g clip-path="url(#clip0_2_2334)">
<path d="M512 1024C794.77 1024 1024 794.77 1024 512C1024 229.23 794.77 0 512 0C229.23 0 0 229.23 0 512C0 794.77 229.23 1024 512 1024Z" fill="#73ADA4"/>
<path d="M678.34 309.51L417.82 439.11V267.41C461.087 250.757 507.998 245.88 553.766 253.276C599.533 260.672 642.52 280.077 678.34 309.51ZM402.34 567.57L417.85 559.85L747.09 396.06C733.066 367.721 714.045 342.145 690.94 320.56L417.82 456.44V524.52L258.64 445.33C250.009 478.002 247.818 512.041 252.19 545.55L402.31 620.23L402.34 567.57ZM417.85 756.57C456.862 771.597 498.902 777.073 540.462 772.542C582.021 768.011 621.894 753.604 656.752 730.524C691.609 707.444 720.439 676.36 740.836 639.867C761.232 603.375 772.604 562.532 774 520.75L417.82 697.92L417.85 756.57ZM402.31 274C369.64 289.115 340.425 310.782 316.476 337.657C292.527 364.532 274.356 396.041 263.09 430.23L402.31 499.49V274ZM417.82 680.6L439.9 669.6L453.29 663L774 503.42C773.78 496.626 773.307 489.9 772.58 483.24C772.06 478.52 771.417 473.853 770.65 469.24C769.883 464.626 769 460.013 768 455.4C764.57 439.919 759.737 424.783 753.56 410.18L417.83 577.18V645.27L354.31 613.67L255.31 564.43C263.555 604.725 281.154 642.518 306.689 674.763C332.223 707.007 364.977 732.799 402.31 750.06V688.31L417.82 680.6Z" fill="white"/>
</g>
<defs>
<clipPath id="clip0_2_2334">
<rect width="1024" height="1024" fill="white"/>
</clipPath>
</defs>
</svg>

<svg xmlns="http://www.w3.org/2000/svg" viewBox="0 0 1024 1024">
   <circle cx="512" cy="512" r="512" style="fill:#2d535a"/>
   <path d="m678.34 309.51-260.52 129.6v-171.7a262.08 262.08 0 0 1 260.52 42.1Zm-276 258.06 15.51-7.72 329.24-163.79a262.87 262.87 0 0 0-56.15-75.5L417.82 456.44v68.08l-159.18-79.19a260.45 260.45 0 0 0-6.45 100.22l150.12 74.68Zm15.51 189A262.09 262.09 0 0 0 774 520.75L417.82 697.92ZM402.31 274a262.75 262.75 0 0 0-139.22 156.23l139.22 69.26Zm15.51 406.6 22.08-11 13.39-6.6L774 503.42q-.33-10.19-1.42-20.18-.78-7.08-1.93-14T768 455.4a261 261 0 0 0-14.44-45.22l-335.73 167v68.09l-63.52-31.6-99-49.24a262.48 262.48 0 0 0 147 185.63v-61.75Z" style="fill:#fff"/>
</svg>
